flaticon/gastronomy/potatoes-2.svg

<svg xmlns="http://www.w3.org/2000/svg" width="32" height="32" viewBox="0 0 24 24">
    <path d="M 23.839844 8.328125 C 22.84375 4.519531 20.292969 5.1875 16.070312 6.292969 C 15.433594 6.457031 14.5625 6.5625 13.636719 6.671875 C 12.867188 6.761719 12.046875 6.863281 11.257812 7.007812 C 10.972656 6.714844 10.679688 6.402344 10.371094 6.070312 C 9.21875 4.835938 7.917969 3.433594 6.546875 2.722656 C 4.433594 1.632812 2.714844 2.023438 1.140625 3.953125 C -0.820312 6.359375 -0.203125 10.304688 2.59375 13.410156 C 2.554688 13.578125 2.519531 13.753906 2.492188 13.941406 C 2.234375 15.703125 2.933594 17.488281 4.460938 18.96875 C 5.953125 20.414062 8.066406 21.398438 10.410156 21.746094 C 11.015625 21.835938 11.617188 21.878906 12.210938 21.878906 C 13.914062 21.878906 15.539062 21.511719 16.90625 20.804688 C 18.800781 19.832031 19.984375 18.324219 20.246094 16.558594 C 20.308594 16.136719 20.332031 15.753906 20.320312 15.402344 C 23.109375 13.566406 24.492188 10.8125 23.839844 8.328125 Z M 2.894531 12.425781 C 0.683594 9.71875 0.214844 6.476562 1.820312 4.503906 C 2.652344 3.488281 3.457031 2.992188 4.375 2.992188 C 4.914062 2.992188 5.496094 3.164062 6.144531 3.5 C 7.378906 4.140625 8.628906 5.484375 9.730469 6.667969 C 9.894531 6.84375 10.054688 7.015625 10.210938 7.183594 C 9.554688 7.34375 9.007812 7.539062 8.550781 7.765625 C 7.351562 8.363281 6.609375 9.140625 6.300781 10.132812 C 6.277344 10.136719 6.253906 10.140625 6.230469 10.144531 C 5.839844 10.183594 5.480469 10.253906 5.148438 10.355469 C 5.140625 10.359375 5.128906 10.363281 5.121094 10.367188 C 4.421875 10.589844 3.867188 10.964844 3.445312 11.492188 C 3.4375 11.503906 3.429688 11.515625 3.421875 11.523438 C 3.332031 11.640625 3.246094 11.761719 3.167969 11.894531 C 3.15625 11.914062 3.140625 11.933594 3.128906 11.957031 C 3.054688 12.085938 2.984375 12.226562 2.921875 12.375 C 2.914062 12.390625 2.902344 12.40625 2.894531 12.425781 Z M 19.378906 16.433594 C 19.160156 17.90625 18.140625 19.183594 16.507812 20.027344 C 14.824219 20.894531 12.703125 21.195312 10.539062 20.878906 C 8.375 20.558594 6.433594 19.65625 5.070312 18.339844 C 3.75 17.0625 3.140625 15.542969 3.359375 14.066406 C 3.394531 13.824219 3.441406 13.597656 3.496094 13.382812 C 3.542969 13.203125 3.597656 13.035156 3.65625 12.875 C 3.664062 12.855469 3.671875 12.839844 3.675781 12.820312 C 3.738281 12.664062 3.808594 12.519531 3.886719 12.386719 C 3.894531 12.371094 3.902344 12.359375 3.910156 12.34375 C 3.992188 12.210938 4.078125 12.085938 4.175781 11.972656 C 4.179688 11.96875 4.183594 11.964844 4.183594 11.960938 C 4.285156 11.84375 4.398438 11.738281 4.519531 11.640625 C 4.636719 11.546875 4.765625 11.46875 4.902344 11.398438 C 4.914062 11.390625 4.929688 11.382812 4.945312 11.375 C 5.078125 11.308594 5.21875 11.25 5.367188 11.203125 C 5.390625 11.195312 5.414062 11.1875 5.4375 11.179688 C 5.589844 11.132812 5.75 11.09375 5.921875 11.066406 C 5.941406 11.0625 5.964844 11.058594 5.988281 11.054688 C 6.167969 11.027344 6.355469 11.003906 6.558594 10.992188 C 6.652344 10.984375 6.753906 10.988281 6.855469 10.988281 C 6.96875 10.988281 7.082031 10.992188 7.199219 10.996094 C 7.320312 11.003906 7.445312 11.015625 7.574219 11.027344 C 7.628906 11.03125 7.683594 11.039062 7.738281 11.042969 C 7.78125 11.050781 7.824219 11.050781 7.871094 11.058594 C 7.988281 11.074219 8.109375 11.09375 8.230469 11.117188 C 8.296875 11.128906 8.367188 11.136719 8.4375 11.152344 C 8.546875 11.171875 8.65625 11.195312 8.765625 11.21875 C 8.847656 11.234375 8.921875 11.25 9 11.269531 C 9.167969 11.304688 9.335938 11.347656 9.503906 11.390625 C 9.523438 11.394531 9.539062 11.398438 9.558594 11.402344 C 10.136719 11.550781 10.710938 11.71875 11.261719 11.878906 C 12.183594 12.148438 13.054688 12.402344 13.765625 12.507812 C 16.050781 12.84375 17.503906 13.109375 18.371094 13.578125 C 18.378906 13.582031 18.382812 13.585938 18.390625 13.589844 C 19.058594 13.957031 19.367188 14.457031 19.433594 15.214844 L 19.449219 15.425781 C 19.457031 15.710938 19.4375 16.042969 19.378906 16.433594 Z M 20.179688 14.445312 C 20.175781 14.4375 20.171875 14.429688 20.167969 14.421875 C 20.140625 14.332031 20.109375 14.246094 20.070312 14.160156 C 20.054688 14.121094 20.039062 14.082031 20.019531 14.046875 C 19.980469 13.960938 19.9375 13.878906 19.886719 13.800781 C 19.875 13.777344 19.859375 13.757812 19.84375 13.734375 C 19.667969 13.472656 19.441406 13.242188 19.164062 13.046875 C 19.152344 13.035156 19.136719 13.023438 19.121094 13.015625 C 19.074219 12.980469 19.035156 12.945312 18.984375 12.914062 C 18.933594 12.882812 18.875 12.855469 18.820312 12.828125 C 18.820312 12.828125 18.820312 12.824219 18.816406 12.824219 C 18.523438 12.664062 18.183594 12.523438 17.800781 12.402344 C 17.742188 12.382812 17.6875 12.363281 17.625 12.34375 C 17.566406 12.328125 17.5 12.308594 17.4375 12.292969 C 17.296875 12.253906 17.152344 12.214844 17 12.179688 C 16.984375 12.175781 16.96875 12.171875 16.953125 12.167969 C 16.070312 11.964844 15.042969 11.8125 13.894531 11.640625 C 13.730469 11.617188 13.554688 11.582031 13.371094 11.542969 C 13.371094 11.542969 13.367188 11.542969 13.363281 11.542969 C 12.8125 11.417969 12.171875 11.230469 11.503906 11.039062 C 10.234375 10.664062 8.835938 10.257812 7.542969 10.144531 C 7.488281 10.136719 7.429688 10.128906 7.371094 10.125 C 7.65625 9.5 8.207031 8.996094 9.066406 8.566406 C 10.3125 7.949219 12.132812 7.730469 13.738281 7.539062 C 14.695312 7.429688 15.597656 7.320312 16.292969 7.140625 C 20.894531 5.933594 22.253906 5.714844 22.996094 8.550781 C 23.523438 10.566406 22.425781 12.828125 20.179688 14.445312 Z M 20.179688 14.445312"/>
    <path d="M6.109375 14.242188C6.050781 14.007812 5.8125 13.867188 5.578125 13.925781 5.34375 13.984375 5.199219 14.21875 5.257812 14.453125L5.695312 16.207031C5.746094 16.402344 5.925781 16.535156 6.121094 16.535156 6.15625 16.535156 6.191406 16.53125 6.226562 16.523438 6.460938 16.464844 6.605469 16.226562 6.546875 15.992188zM15.738281 8.554688C15.679688 8.320312 15.441406 8.175781 15.207031 8.234375 14.972656 8.292969 14.828125 8.53125 14.886719 8.765625L15.324219 10.515625C15.375 10.714844 15.554688 10.847656 15.75 10.847656 15.785156 10.847656 15.820312 10.84375 15.855469 10.835938 16.089844 10.777344 16.234375 10.539062 16.175781 10.304688zM13.320312 18.234375L11.820312 19.238281C11.617188 19.371094 11.566406 19.644531 11.699219 19.84375 11.785156 19.96875 11.921875 20.039062 12.0625 20.039062 12.148438 20.039062 12.230469 20.015625 12.304688 19.964844L13.804688 18.960938C14.007812 18.824219 14.058594 18.554688 13.925781 18.351562 13.789062 18.152344 13.519531 18.097656 13.320312 18.234375zM4.371094 6.472656C4.457031 6.472656 4.539062 6.445312 4.613281 6.398438L6.113281 5.394531C6.316406 5.257812 6.367188 4.988281 6.234375 4.785156 6.097656 4.585938 5.828125 4.53125 5.628906 4.664062L4.128906 5.667969C3.925781 5.804688 3.875 6.078125 4.007812 6.277344 4.09375 6.402344 4.230469 6.472656 4.371094 6.472656zM13.246094 15.527344C13.4375 15.527344 13.613281 15.398438 13.667969 15.207031 13.730469 14.972656 13.59375 14.730469 13.359375 14.667969L11.621094 14.191406C11.386719 14.125 11.144531 14.261719 11.082031 14.496094 11.019531 14.730469 11.15625 14.96875 11.386719 15.035156L13.128906 15.511719C13.167969 15.523438 13.207031 15.527344 13.246094 15.527344zM4.144531 9.621094C4.292969 9.621094 4.433594 9.550781 4.515625 9.417969 4.644531 9.214844 4.585938 8.945312 4.378906 8.816406L2.855469 7.851562C2.652344 7.722656 2.378906 7.785156 2.25 7.988281 2.121094 8.191406 2.183594 8.464844 2.386719 8.59375L3.914062 9.554688C3.984375 9.601562 4.066406 9.621094 4.144531 9.621094zM21.167969 10.085938L19.832031 11.296875C19.652344 11.460938 19.640625 11.738281 19.800781 11.917969 19.890625 12.011719 20.007812 12.058594 20.125 12.058594 20.230469 12.058594 20.335938 12.023438 20.421875 11.945312L21.757812 10.734375C21.9375 10.570312 21.949219 10.292969 21.785156 10.117188 21.625 9.9375 21.347656 9.921875 21.167969 10.085938zM21.167969 10.085938"/>
</svg>

<svg xmlns="http://www.w3.org/2000/svg" width="32" height="32" viewBox="0 0 24 24">
    <path d="M23.84 8.328c-.996-3.808-3.547-3.14-7.77-2.035-.636.164-1.508.27-2.433.379-.77.09-1.59.191-2.38.336a56.515 56.515 0 0 1-.886-.938C9.22 4.836 7.918 3.434 6.547 2.723c-2.113-1.09-3.832-.7-5.406 1.23C-.82 6.36-.203 10.305 2.594 13.41c-.04.168-.074.344-.102.531-.258 1.762.442 3.547 1.969 5.028 1.492 1.445 3.605 2.43 5.95 2.777.605.09 1.206.133 1.8.133 1.703 0 3.328-.367 4.695-1.074 1.895-.973 3.078-2.48 3.34-4.246a6.43 6.43 0 0 0 .074-1.157c2.79-1.836 4.172-4.59 3.52-7.074zM2.895 12.426C.684 9.719.215 6.476 1.82 4.504c.832-1.016 1.637-1.512 2.555-1.512.54 0 1.121.172 1.77.508 1.234.64 2.484 1.984 3.585 3.168l.48.516a8.008 8.008 0 0 0-1.66.582c-1.198.597-1.94 1.375-2.25 2.367l-.07.012c-.39.039-.75.109-1.082.21l-.027.012c-.7.223-1.254.598-1.676 1.125a3.647 3.647 0 0 0-.277.402c-.012.02-.027.04-.04.063-.073.129-.144.27-.206.418-.008.016-.02.031-.027.05zm16.484 4.008c-.219 1.472-1.238 2.75-2.871 3.593-1.684.868-3.805 1.168-5.969.852-2.164-.32-4.105-1.223-5.469-2.54-1.32-1.276-1.93-2.796-1.71-4.273a5.543 5.543 0 0 1 .297-1.191c.007-.02.015-.035.019-.055.062-.156.133-.3.21-.433l.024-.043a2.888 2.888 0 0 1 .274-.383c.101-.117.214-.223.336-.32a2.267 2.267 0 0 1 .425-.266 2.888 2.888 0 0 1 .492-.195c.153-.047.313-.086.485-.114l.066-.011c.18-.028.367-.051.57-.063.094-.008.196-.004.297-.004.114 0 .227.004.344.008.121.008.246.02.375.031.055.004.11.012.164.016.043.008.086.008.133.016.117.015.238.035.36.058.066.012.136.02.207.035.109.02.218.043.328.067a11.788 11.788 0 0 1 .738.172l.055.011c.578.149 1.152.317 1.703.477.922.27 1.793.523 2.504.629 2.285.336 3.738.601 4.605 1.07l.02.012c.668.367.976.867 1.043 1.625l.015.21c.008.286-.012.618-.07 1.009zm.8-1.989l-.011-.023a2.11 2.11 0 0 0-.098-.262.996.996 0 0 0-.05-.113 1.861 1.861 0 0 0-.133-.246c-.012-.024-.028-.043-.043-.067a2.641 2.641 0 0 0-.68-.687.173.173 0 0 0-.043-.031c-.047-.036-.086-.07-.137-.102-.05-.031-.109-.059-.164-.086 0 0 0-.004-.004-.004-.293-.16-.632-.3-1.015-.422-.059-.02-.113-.039-.176-.058-.059-.016-.125-.035-.188-.051A10.13 10.13 0 0 0 17 12.18l-.047-.012c-.883-.203-1.91-.355-3.058-.527a8.019 8.019 0 0 1-.524-.098h-.008c-.55-.125-1.191-.313-1.86-.504-1.269-.375-2.667-.781-3.96-.894a2.308 2.308 0 0 0-.172-.02c.285-.625.836-1.129 1.695-1.559 1.246-.617 3.067-.836 4.672-1.027.957-.11 1.86-.219 2.555-.398 4.602-1.207 5.96-1.426 6.703 1.41.527 2.015-.57 4.277-2.816 5.894zm0 0"/>
    <path d="M6.11 14.242a.437.437 0 0 0-.532-.316.435.435 0 0 0-.32.527l.437 1.754a.442.442 0 0 0 .532.316.44.44 0 0 0 .32-.53zm0 0M15.738 8.555a.44.44 0 0 0-.851.21l.437 1.75a.441.441 0 0 0 .531.32.44.44 0 0 0 .32-.53zm0 0M13.32 18.234l-1.5 1.004a.435.435 0 0 0-.12.606.442.442 0 0 0 .363.195.421.421 0 0 0 .242-.074l1.5-1.004a.44.44 0 0 0 .12-.61.435.435 0 0 0-.605-.117zm0 0M4.371 6.473a.452.452 0 0 0 .242-.075l1.5-1.003a.44.44 0 0 0 .121-.61.44.44 0 0 0-.605-.12l-1.5 1.003a.44.44 0 0 0 .242.805zm0 0M13.246 15.527a.442.442 0 0 0 .422-.32.44.44 0 0 0-.309-.539l-1.738-.477a.434.434 0 0 0-.539.305.442.442 0 0 0 .305.54l1.742.476c.039.011.078.015.117.015zm0 0M4.145 9.621a.43.43 0 0 0 .37-.203.433.433 0 0 0-.136-.602l-1.524-.964a.441.441 0 0 0-.605.136.441.441 0 0 0 .137.606l1.527.96c.07.048.152.067.23.067zm0 0M21.168 10.086l-1.336 1.21a.443.443 0 0 0-.031.622.448.448 0 0 0 .62.027l1.337-1.21a.434.434 0 0 0 .027-.618.434.434 0 0 0-.617-.031zm0 0"/>
</svg>
